X:33
T:The New Opera Hat   
O:No 33 Pages 12-13 William Clarke of Feltwell   MS 1858
N:Bottom of page
I:abc2nwc
M:6/8
L:1/8
K:G
g2g gab|d2d d2d|e2g f2a|g2b afd|g2g gab|d2d d2d|
e2g f2a|g3-g3:||:a2a abc'|b2a g2b|a2a abc'|b2a g2g|
a2a abc'|b2a g2b|a2g f2e|d2c B2A|B3{d}cBc|
d2c B2d|e2g f2a|g2b afd|B3{d}cBc|d3d2d|e2g f2a|g3-g3|]


